SVG_Azure_All/Data Lake.svg

<?xml version="1.0" encoding="UTF-8" standalone="no"?>
<!-- Generated by Microsoft Visio, SVG Export Data Lake.svg Page-1 -->

<svg
   xmlns:dc="http://purl.org/dc/elements/1.1/"
   xmlns:cc="http://creativecommons.org/ns#"
   xmlns:rdf="http://www.w3.org/1999/02/22-rdf-syntax-ns#"
   xmlns:svg="http://www.w3.org/2000/svg"
   xmlns="http://www.w3.org/2000/svg"
   xmlns:sodipodi="http://sodipodi.sourceforge.net/DTD/sodipodi-0.dtd"
   xmlns:inkscape="http://www.inkscape.org/namespaces/inkscape"
   width="0.59058738in"
   height="0.7873925in"
   viewBox="0 0 42.522297 56.6924"
   xml:space="preserve"
   class="st8"
   version="1.1"
   id="svg67"
   sodipodi:docname="Data Lake.svg"
   style="font-size:12px;overflow:visible;color-interpolation-filters:sRGB;fill:none;fill-rule:evenodd;stroke-linecap:square;stroke-miterlimit:3"
   inkscape:version="0.92.5 (2060ec1f9f, 2020-04-08)"><metadata
   id="metadata73"><rdf:RDF><cc:Work
       rdf:about=""><dc:format>image/svg+xml</dc:format><dc:type
         rdf:resource="http://purl.org/dc/dcmitype/StillImage" /></cc:Work></rdf:RDF></metadata><defs
   id="defs71" /><sodipodi:namedview
   pagecolor="#ffffff"
   bordercolor="#666666"
   borderopacity="1"
   objecttolerance="10"
   gridtolerance="10"
   guidetolerance="10"
   inkscape:pageopacity="0"
   inkscape:pageshadow="2"
   inkscape:window-width="640"
   inkscape:window-height="480"
   id="namedview69"
   showgrid="false"
   inkscape:zoom="1.8365233"
   inkscape:cx="28.34637"
   inkscape:cy="18.900351"
   inkscape:window-x="0"
   inkscape:window-y="0"
   inkscape:window-maximized="0"
   inkscape:current-layer="svg67" />
	<style
   type="text/css"
   id="style2">
	<![CDATA[
		.st1 {fill:#3e3e3e;stroke:none;stroke-linecap:butt;stroke-width:0.75}
		.st2 {fill:#a0a1a2;stroke:none;stroke-linecap:butt;stroke-width:0.75}
		.st3 {fill:#ffffff;stroke:none;stroke-linecap:butt;stroke-width:0.75}
		.st4 {fill:#7fba00;stroke:none;stroke-linecap:butt;stroke-width:0.75}
		.st5 {fill:#b8d432;stroke:none;stroke-linecap:butt;stroke-width:0.75}
		.st6 {fill:#3999c6;stroke:none;stroke-linecap:butt;stroke-width:0.75}
		.st7 {fill:#59b4d9;stroke:none;stroke-linecap:butt;stroke-width:0.75}
		.st8 {fill:none;fill-rule:evenodd;font-size:12px;overflow:visible;stroke-linecap:square;stroke-miterlimit:3}
	]]>
	</style>

	<g
   id="g65"
   transform="translate(-4.25203,-5.6719)">
		<title
   id="title4">Page-1</title>
		<g
   id="group5860-1"
   transform="translate(4.25197,-34.0157)">
			<title
   id="title6">Data Lake</title>
			<g
   id="group5861-2">
				<title
   id="title8">g12</title>
				<g
   id="shape5862-3"
   transform="translate(0,-0.113386)">
					<title
   id="title10">path2</title>
					<path
   d="m 0,47.51 v 41.16 c 0,4.31 9.45,7.71 21.26,7.71 V 47.51 Z"
   class="st1"
   id="path12"
   inkscape:connector-curvature="0"
   style="fill:#3e3e3e;stroke:none;stroke-width:0.75;stroke-linecap:butt" />
				</g>
				<g
   id="shape5863-5"
   transform="translate(20.9224)">
					<title
   id="title15">path4</title>
					<path
   d="m 0,96.38 h 0.34 c 11.7,0 21.26,-3.52 21.26,-7.71 V 47.4 H 0 Z"
   class="st2"
   id="path17"
   inkscape:connector-curvature="0"
   style="fill:#a0a1a2;stroke:none;stroke-width:0.75;stroke-linecap:butt" />
				</g>
				<g
   id="shape5864-7"
   transform="translate(0,-41.2724)">
					<title
   id="title20">path6</title>
					<path
   d="m 42.52,88.67 c 0,4.31 -9.45,7.71 -21.26,7.71 C 9.45,96.38 0,92.98 0,88.67 c 0,-4.2 9.56,-7.71 21.26,-7.71 11.7,0 21.26,3.51 21.26,7.71 z"
   class="st3"
   id="path22"
   inkscape:connector-curvature="0"
   style="fill:#ffffff;stroke:none;stroke-width:0.75;stroke-linecap:butt" />
				</g>
				<g
   id="shape5865-9"
   transform="translate(4.38695,-44.3339)">
					<title
   id="title25">path8</title>
					<path
   d="m 33.75,91.28 c 0,2.83 -7.54,5.1 -16.88,5.1 C 7.54,96.38 0,94.11 0,91.28 c 0,-2.84 7.54,-5.11 16.87,-5.11 9.34,0 16.88,2.27 16.88,5.11 z"
   class="st4"
   id="path27"
   inkscape:connector-curvature="0"
   style="fill:#7fba00;stroke:none;stroke-width:0.75;stroke-linecap:butt" />
				</g>
				<g
   id="shape5866-11"
   transform="translate(4.38695,-46.2614)">
					<title
   id="title30">path10</title>
					<path
   d="m 30.26,96.38 c 2.25,-0.91 3.49,-1.93 3.49,-3.18 0,-2.83 -7.54,-5.1 -16.88,-5.1 C 7.54,88.1 0,90.37 0,93.2 c 0,1.14 1.35,2.27 3.49,3.18 3.03,-1.25 7.87,-2.04 13.38,-2.04 5.4,0 10.24,0.79 13.39,2.04 z"
   class="st5"
   id="path32"
   inkscape:connector-curvature="0"
   style="fill:#b8d432;stroke:none;stroke-width:0.75;stroke-linecap:butt" />
				</g>
			</g>
			<g
   id="group5867-13">
				<title
   id="title36">g24</title>
				<g
   id="shape5868-14">
					<title
   id="title38">path14</title>
					<path
   d="M 20.92,96.38 V 75.97 c -3.15,0 -5.85,-1.7 -7.42,-4.2 -1.58,2.5 -4.16,4.2 -7.31,4.2 -2.48,0 -4.62,-1.02 -6.19,-2.72 v 15.42 c 0,4.19 9.34,7.59 20.92,7.71 z"
   class="st6"
   id="path40"
   inkscape:connector-curvature="0"
   style="fill:#3999c6;stroke:none;stroke-width:0.75;stroke-linecap:butt" />
				</g>
				<g
   id="shape5869-16"
   transform="translate(21.2598)">
					<title
   id="title43">path16</title>
					<path
   d="m 0,96.38 c 0,0 0,0 0,0 z"
   class="st6"
   id="path45"
   inkscape:connector-curvature="0"
   style="fill:#3999c6;stroke:none;stroke-width:0.75;stroke-linecap:butt" />
				</g>
				<g
   id="shape5870-18"
   transform="translate(20.9224)">
					<title
   id="title48">path18</title>
					<path
   d="m 0,96.38 h 0.34 c -0.12,0 -0.23,0 -0.34,0 z"
   class="st7"
   id="path50"
   inkscape:connector-curvature="0"
   style="fill:#59b4d9;stroke:none;stroke-width:0.75;stroke-linecap:butt" />
				</g>
				<g
   id="shape5871-20"
   transform="translate(21.1474)">
					<title
   id="title53">path20</title>
					<path
   d="m 14.85,75.97 c -3.15,0 -5.96,-1.7 -7.54,-4.2 -1.46,2.5 -4.16,4.09 -7.31,4.2 v 20.41 c 11.7,0 21.26,-3.52 21.26,-7.71 V 73.13 c -1.57,1.7 -3.82,2.84 -6.41,2.84 z"
   class="st7"
   id="path55"
   inkscape:connector-curvature="0"
   style="fill:#59b4d9;stroke:none;stroke-width:0.75;stroke-linecap:butt" />
				</g>
				<g
   id="shape5872-22"
   transform="translate(20.9224)">
					<title
   id="title58">path22</title>
					<path
   d="m 0.11,75.97 c 0,0 0,0 0,0 L 0,96.38 c 0.11,0 0.11,0 0.22,0 V 75.97 c 0,0 0,0 -0.11,0 z"
   class="st7"
   id="path60"
   inkscape:connector-curvature="0"
   style="fill:#59b4d9;stroke:none;stroke-width:0.75;stroke-linecap:butt" />
				</g>
			</g>
		</g>
	</g>
</svg>

<?xml version="1.0" encoding="UTF-8" standalone="no"?>
<!DOCTYPE svg PUBLIC "-//W3C//DTD SVG 1.1//EN" "http://www.w3.org/Graphics/SVG/1.1/DTD/svg11.dtd">
<!-- Generated by Microsoft Visio, SVG Export Data Lake.svg Page-1 -->
<svg xmlns="http://www.w3.org/2000/svg" xmlns:xlink="http://www.w3.org/1999/xlink" xmlns:ev="http://www.w3.org/2001/xml-events"
		width="0.708661in" height="1.33858in" viewBox="0 0 51.0236 96.378" xml:space="preserve" color-interpolation-filters="sRGB"
		class="st8">
	<style type="text/css">
	<![CDATA[
		.st1 {fill:#3e3e3e;stroke:none;stroke-linecap:butt;stroke-width:0.75}
		.st2 {fill:#a0a1a2;stroke:none;stroke-linecap:butt;stroke-width:0.75}
		.st3 {fill:#ffffff;stroke:none;stroke-linecap:butt;stroke-width:0.75}
		.st4 {fill:#7fba00;stroke:none;stroke-linecap:butt;stroke-width:0.75}
		.st5 {fill:#b8d432;stroke:none;stroke-linecap:butt;stroke-width:0.75}
		.st6 {fill:#3999c6;stroke:none;stroke-linecap:butt;stroke-width:0.75}
		.st7 {fill:#59b4d9;stroke:none;stroke-linecap:butt;stroke-width:0.75}
		.st8 {fill:none;fill-rule:evenodd;font-size:12px;overflow:visible;stroke-linecap:square;stroke-miterlimit:3}
	]]>
	</style>

	<g>
		<title>Page-1</title>
		<g id="group5741-1" transform="translate(4.25197,-34.0157)">
			<title>Data Lake</title>
			<g id="group5742-2">
				<title>g12</title>
				<g id="shape5743-3" transform="translate(0,-0.113386)">
					<title>path2</title>
					<path d="M0 47.51 L0 88.67 C0 92.98 9.45 96.38 21.26 96.38 L21.26 47.51 L0 47.51 Z" class="st1"/>
				</g>
				<g id="shape5744-5" transform="translate(20.9224,1.42109E-14)">
					<title>path4</title>
					<path d="M0 96.38 L0.34 96.38 C12.04 96.38 21.6 92.86 21.6 88.67 L21.6 47.4 L0 47.4 L0 96.38 Z" class="st2"/>
				</g>
				<g id="shape5745-7" transform="translate(0,-41.2724)">
					<title>path6</title>
					<path d="M42.52 88.67 C42.52 92.98 33.07 96.38 21.26 96.38 C9.45 96.38 0 92.98 0 88.67 C0 84.47 9.56 80.96 21.26
								 80.96 C32.96 80.96 42.52 84.47 42.52 88.67 Z" class="st3"/>
				</g>
				<g id="shape5746-9" transform="translate(4.38695,-44.3339)">
					<title>path8</title>
					<path d="M33.75 91.28 C33.75 94.11 26.21 96.38 16.87 96.38 C7.54 96.38 0 94.11 0 91.28 C0 88.44 7.54 86.17 16.87
								 86.17 C26.21 86.17 33.75 88.44 33.75 91.28 Z" class="st4"/>
				</g>
				<g id="shape5747-11" transform="translate(4.38695,-46.2614)">
					<title>path10</title>
					<path d="M30.26 96.38 C32.51 95.47 33.75 94.45 33.75 93.2 C33.75 90.37 26.21 88.1 16.87 88.1 C7.54 88.1 0 90.37
								 0 93.2 C0 94.34 1.35 95.47 3.49 96.38 C6.52 95.13 11.36 94.34 16.87 94.34 C22.27 94.34 27.11 95.13
								 30.26 96.38 Z" class="st5"/>
				</g>
			</g>
			<g id="group5748-13">
				<title>g24</title>
				<g id="shape5749-14">
					<title>path14</title>
					<path d="M20.92 96.38 L20.92 75.97 C17.77 75.97 15.07 74.27 13.5 71.77 C11.92 74.27 9.34 75.97 6.19 75.97 C3.71
								 75.97 1.57 74.95 0 73.25 L0 88.67 C0 92.86 9.34 96.26 20.92 96.38 Z" class="st6"/>
				</g>
				<g id="shape5750-16" transform="translate(21.2598,1.42109E-14)">
					<title>path16</title>
					<path d="M0 96.38 C0 96.38 0 96.38 0 96.38 Z" class="st6"/>
				</g>
				<g id="shape5751-18" transform="translate(20.9224,1.42109E-14)">
					<title>path18</title>
					<path d="M0 96.38 L0.34 96.38 C0.22 96.38 0.11 96.38 0 96.38 Z" class="st7"/>
				</g>
				<g id="shape5752-20" transform="translate(21.1474,1.42109E-14)">
					<title>path20</title>
					<path d="M14.85 75.97 C11.7 75.97 8.89 74.27 7.31 71.77 C5.85 74.27 3.15 75.86 0 75.97 L0 96.38 C11.7 96.38 21.26
								 92.86 21.26 88.67 L21.26 73.13 C19.69 74.83 17.44 75.97 14.85 75.97 Z" class="st7"/>
				</g>
				<g id="shape5753-22" transform="translate(20.9224,1.42109E-14)">
					<title>path22</title>
					<path d="M0.11 75.97 C0.11 75.97 0.11 75.97 0.11 75.97 L0 96.38 C0.11 96.38 0.11 96.38 0.22 96.38 L0.22 75.97
								 C0.22 75.97 0.22 75.97 0.11 75.97 Z" class="st7"/>
				</g>
			</g>
		</g>
	</g>
</svg>
